X:1
T:A Fairy Town
T:A Fairy Town
T:Copyright © CPDL
T:Copyright © CPDL
T:Copyright © CPDL
T:Copyright © CPDL
T:Copyright © CPDL
T:Copyright © CPDL
Z:Copyright © CPDL
%%score 1 { ( 2 3 ) ( 4 5 ) }
L:1/8
Q:1/4=100
M:4/4
K:G
V:1 treble nm="P1"
V:2 treble nm="P2"
V:3 treble 
V:4 bass nm="P3"
V:5 bass 
V:1
"^Editor: John Henry Fowler""^Allegretto Scherzando.""^(  Revision:   4 - 30 - 2008  )""^From \"English Lyrics\" -  Set 9 -  Number 2""^Words by Mary E. Coleridge" z8 | %1
w: |
"^( St. Andrew's. )"!p! z8 | %2
w: |
"^Charles Hubert Hastings Parry""^semplice" Gd"^( 1848 - 1918 )"eB AF D2 | %3
w: While the sun was go- ing down,|
 z2!<(! Bd!<)! !fermata![eg]3!>(! B | AF!>)! D4 z2 | z8 | z8 |!p! ^DFB^G F^C F2 | %8
w: There a- rose a|fai- ry town.|||Not the town I saw by day,|
"^meno mosso" =DF/ z/ dB/ z/ ^A^C F2- |"^a tempo" F2 z2 z4 |"^poco rit." z8 | %11
w: Cheer- less, joy- less, dull and gray,|_||
!mf! z2!<(! FA!<)! c3 G | FA D2 z2"^allargando" c2- | c!<(!AAc!<)!!>(! e3!>)! e | A4 z4 | %15
w: But a far, fan-|\-~tas- tic place, Build-|* ed with e- the- real|grace,|
!pp! B/B/c dF GA B2 | E!<(!FGB BA!<)! d2 |"^poco. cresc." ^cedB AE A2 | %18
w: Shim- mer- ing in a ten- der mist|That the slant- ing rays had kissed|Ere they let their lat- est fire|
"^rit."!<(! Bd!<)! g2- gdBA |"^a tempo" G z z2 z4 |"^rit."!p!"^a tempo" z8 ||[K:Eb] EBcG FB B2 | %22
w: Touch with gold _ each slen- der|spire.||There no men and wo- men be;|
 Be z2 dfBA | G4 AeGB | Fc E2 z2 Gc ||[K:G] d4- dA_BG | d6 z2 |"^poco rit." z8 | %28
w: Mer- men, maid- ens of the|sea, Comb- ing out their|tan- gled locks, Sit and|sing _ a- mong the|rocks.||
!p!"^a tempo" GdeB AF D2 | GdeB AF D2 | GdeB AF D2 | z2 G!<(!d _e!<)!c g2- | %32
w: As their rud- dy harps they sound,|With the sea- weed twist- ed round,|In the shin- ing sand be- low|See the ci- ty down-|
"^rit. ad lib. e dim." (g3 f _e2 dc | _B3 _A G2) (=F_E) |"^a tempo" D6 z2 | z8 | z8 | z8 |] %38
w: |* * * ward _|go~!||||
V:2
 ([gb]3 [da] [Bg]2) (.[Ad].[GB]) | ([DA][B,G]) !>![A,D]2- [A,D]([CA][B,G][A,D]) | %2
 ([G,B,]4 [A,D]4) | ([G,B,]4 !fermata![E,G,]4) | ([F,A,]4 [A,C]4) | %5
 ([gb]3 [da] [Bg]2) (.[Ad].[GB]) | ([DA][B,G]) !>![A,D]2- [A,D]([CA][B,G][^CE]) | %7
 ([^DF]4 [^C^A]4) | ([=DF]4 [^C^A]4) | ([bd']3 [f^c'] [db]2) (.[^cf].[Bd]) | %10
 ([F^c][DB]) [^CF]2- [CF]([Ec][DB][Fd]) | [=CF]4 !>![Ge]([F^d][Ge][Ec] | %12
 [=CFA]2) z2 (!>![Gcg][Ff][Gg][Ee] | [CFc]2) z2 ([cgc'][Bb][cc'][Aa]) | ([cf]^efc =e^deA) | %15
 d2 c2 B2 A2 | G2 F2 E2 D2 |"^poco cresc." ^C2 G2 G2 G2 | G2 x2 x4 | %19
 ([gb]3 [da] [Bg]2) (.[Ad].[GB]) | ([DA][B,G]) [A,D]2- [A,D]([CA]"^rit."[B,G][A,D]) || %21
[K:Eb][K:bass] ((G,[B,E]) (E,[B,C]) (F,[B,D]) (A,)[B,F]) | %22
 ((G,[B,E]) (E,[B,C]) (F,[B,D]) (B,)[DF]) | (E[GB]) (D[GB]) (C[EA]) (B,[EG]) | %24
 (A,[CF]) (G,[B,E])[K:bass] (F,[G,D]) (E,[G,C]) || %25
[K:G][K:treble] ([fd']3 [ac'] [g_b][da][_Bg][Ge]) | ([df]3 [Ae] [Fd][EA][DF][EA]) | %27
 ([Fd][EA][DF][EA]) ([DF]3 [CFA]) | %28
"^a tempo" x B/4d/4g/4b/4 x G/4B/4e/4g/4 x A/4d/4f/4a/4 x c/4f/4a/4c'/4 | %29
 x B/4d/4g/4b/4 x G/4B/4e/4g/4 x A/4d/4f/4a/4 x D/4F/4A/4d/4 | %30
 x G/4B/4d/4g/4 x B,/4E/4G/4B/4 x D/4F/4A/4d/4 x G,/4B,/4D/4G/4 | %31
 x G,/4C/4E/4G/4 x G,/4B,/4D/4G/4 x G,/4C/4_E/4G/4 x G/4c/4_e/4g/4 | !arpeggio![gc'_e'g']2 z2 z4 | %33
 [_B,_EG_B]2 z2 [CEGc]2 z2 | (.G.d.e.B) (.A.F) D2- | D2[K:bass] (.B,.G,)"^dim." E,4- | %36
 E,.B,, G,,2 z4 | z8 |] %38
V:3
 x8 | x4 z4 | x8 | x8 | x8 | x8 | x8 | x8 | x8 | x8 | x8 | x8 | x8 | x8 | F^EFA G2- F2 | %15
 (d/g/d'/g/) (c/g/c'/f/) (B/f/b/e/) (A/e/a/^d/) | (G/e/g/B/) (F/B/f/B/) (E/B/e/A/) (D/A/d/G/) | %17
 (^C/G/^c/G/) (G/d/g/d/) (G/c/g/c/) (G/c/e/c/) | (G/d/g/d/) (c/g/c'/g/ B/g/b/g/ F/d/f/d/) | x8 | %20
 x4 x4 ||[K:Eb][K:bass] G,2 E,2 F,2 A,2 | G,2 E,2 F,2 B,2 | E2 D2 C2 B,2 | %24
 A,2 G,2[K:bass] F,2 E,2 ||[K:G][K:treble] x8 | x8 | x8 | x8 | x8 | x8 | x8 | x8 | x8 | x8 | %35
 x2[K:bass] x6 | x8 | x8 |] %38
V:4
!mf! (G,,,D,,) !>!D,2- D,(.D,,"^dim.".D,.D,,) | (G,,,D,,) !>!D,2- D,(.D,,.D,.D,,) | %2
!p! ([G,,,D,,]6 [G,,D,]2) | ([G,,,D,,]6 !fermata![G,,D,]2) | ([G,,,D,,]6 [G,,D,]2) | %5
!mf! (G,,,D,,) !>!D,2- D,(.D,,"^dim.".D,.D,,) | (G,,,D,,) !>!D,2- D,(.D,,.D,.G,,) | %7
 [B,,,F,,]2 [B,,F,]4 [B,,F,]2 |!pp!"^meno mosso" [B,,,F,,]2 [B,,F,]4 [B,,F,]2 | %9
!f!"^a tempo" (B,,,F,,) !>!F,2- F,(.F,,"^dim.".F,.F,,) | %10
 (B,,,F,,) !>!F,2- F,"^poco rit."(.F,,.F,.B,,) |!mf! [D,,A,,]2 [D,A,]4 [D,A,]2 | %12
 A,,2"^cresc." A,2 (E3 C) |"^allargando" A,,2 A,2!f! (E3 C) |"^dim." (D,,A,,) A,2- A,(D, C2) | %15
!pp!"^tranquillo" (B,[DG]) (A,[DF])[K:bass] (G,[B,E]) (F,[A,^D]) | %16
 (E,[G,B,]) (D,[G,B,]) (C,[E,A,]) (B,,[G,D]) | (A,,[E,A,]) !>![B,D]2 (A,,[E,A,]) !>![A,^C]2 | %18
"^rit."!<(! (D,,[D,G,B,])!<)! E2 D2 C2 |!f!"^a tempo" (G,,,D,,) !>!D,2- D,(.D,,.D,.D,,) | %20
"^dim." (G,,,D,,) !>!D,2- D,(.D,,.D,"^a tempo".D,,) || %21
[K:Eb]!p! ((G,,[B,,E,]) (E,,[B,,C,]) (F,,[B,,D,]) (A,,)[B,,F,]) | %22
 ((G,,[B,,D,]) (F,,[B,,D,]) (E,,[G,,C,]) (D,,)[B,,F,]) | %23
 (E,[G,B,]) (D,[G,B,]) (C,[E,A,]) (B,,[G,D]) | %24
 (A,,[C,F,]) (G,,[B,,E,]) (F,,[G,,D,]) (E,,[G,,C,]) ||[K:G]!mf! (D,,D,) D2 (G,,D,) D2 | %26
 (D,,A,,) A,2- A,(A,,A,A,,) |"^poco rit." (D,,A,,) A,2- A,(A,,A,A,,) | %28
!p! (G,/4B,/4D/4G/4 x (E,/4)G,/4B,/4E/4 x (F,/4)A,/4C/4F/4 x (A,/4)C/4E/4A/4 x) | %29
 (G,/4B,/4D/4G/4 x (E,/4)G,/4B,/4E/4 x (F,/4)A,/4D/4F/4 x (C,/4)D,/4F,/4A,/4 x) | %30
 (B,,/4D,/4G,/4B,/4 x (G,,/4)B,,/4E,/4G,/4 x (F,,/4)A,,/4D,/4F,/4 x (F,,/4)G,,/4B,,/4D,/4 x) | %31
 (E,,/4G,,/4C,/4E,/4 x (D,,/4)G,,/4B,,/4D,/4 x (C,,/4)G,,/4C,/4_E,/4 x (C,/4)G,/4C/4_E/4 x) | %32
!p!"^colla voce" !arpeggio![_EGc_e]2 z2 z4 | [_B,,_E,G,]2 _E,,2 [C,E,G,]2 C,,2 | %34
 [G,,,D,,]6 [G,,D,]2 | [G,,,D,,]8 | z4 z2 E,,2 | D,,2 G,,,4 z2 |] %38
V:5
 G,,,2 x2 x4 | G,,,2 x2 x4 | x8 | x8 | x8 | G,,,2 x2 x4 | G,,,2 x2 x4 | x8 | x8 | B,,,2 x2 x4 | %10
 B,,,2 x2 x4 | x8 | D,,2 D,4 D,2 | D,,2 D,4 D,2 | D,,2 x2 x4 | B,2 A,2[K:bass] G,2 F,2 | %16
 E,2 D,2 C,2 B,,2 | A,,2 x2 A,,2 x2 | D,,2 !>!ED, DD, CD, | G,,,2 x2 x2 x2 | G,,,2 x2 x2 x2 || %21
[K:Eb] G,,2 E,,2 F,,2 A,,2 | G,,2 F,,2 E,,2 D,,2 | E,2 D,2 C,2 B,,2 | A,,2 G,,2 F,,2 E,,2 || %25
[K:G] D,,2 x2 G,,2 x2 | D,,2 x2 x2 x2 | D,,2 x2 x2 x2 | G,2 E,2 F,2 A,2 | G,2 E,2 F,2 C,2 | %30
 B,,2 G,,2 F,,2 =F,,2 | E,,2 D,,2 C,,2 C,2 | x8 | x8 | x8 | x8 | x8 | x8 |] %38

